X:19
T:Les tristes noces
R:Chanson
O:France
B:Le livre des Chansons (Henri Davenson) n°19
Z:<anamnese@caramail.com> -- http://anamnese.fr.st
M:6/8
L:1/8
Q:1/4=100
K:C
E | A2 A B2 c | B3-B2 B | c2 B A2 B | A2 ^G A3 | B2 B =G2 ^F |!
E3-E z E | A2 A B2 c | B3 e3 | d2 c B2 c | A2 G/B/ A3 ||
W:Qui veut ouïr chanson,
W:chansonnette nouvelle ?
W:Chante rossignolet !
W:Qui veut ouïr chanson, chansonnette nouvelle ?
W:
W:C'est d'un jeune garçon et d'une demoiselle.
W:Ont fait l'amour sept ans, sept ans sans en rien dire.
W:Mais au bout de sept ans, le galant se marie.
W:Au jardin de ma mère, y a un buisson d'orties.
W:En a fait un bouquet pour porter à s'amie :
W:"Tenez, m'amie, tenez, voici la départie.
W:A une autre que vous mon père me marie.
W:- Celle que vous prenez est-elle bien jolie ?
W:- Pas si jolie que vous, mais elle est bien plus riche. /.../

